X: 3
T: The Foggy Dew
R: reel
M: 4/4
L: 1/8
K: Gmaj
M: 2/4
|: E/F/ |GG/A/ Bg/f/ | ed/B/ AG/A/ | B/A/B/G/ E/G/F/A/ | GG/F/ G :|
e/f/ |gg/f/ ef/g/ | a/g/f/e/ dB/d/ | ee/f/ g/f/e/d/ | ee/f/ eE/F/ |
GG/A/ Bg/f/ | ed/B/ AG/A/ | B/A/B/G/ E/G/F/A/ | GG/F/ G |]


Tune 6862	Setting 21431

